X:7213
T:The Piper's Wife
O:england
B:Joyce, P. W.; "Old Irish Folk Music and Songs"
R:song air
H:From the singing of Mrs. Mary MacSweeny of Glenosheen Co. Limerick, about
H:1848.
M:3/4
K:G
L:1/4
"Mod."D|G>A B/c/|de A/c/|BG A/G/|FDD|
G>A B/c/|de A/c/|BGF|G2||
(3d/e/f/|geg|fdB|e>c A|G>F E/D/|
geg|fdB|Bed|e2 f|geg|fdB|
e>c A|GF E/D/|G/F/G/A/B/c/|de A/c/|BGF|G2||


